@themes/theme-zeno/src/img/digital-ocean.svg

<svg width="239" height="66" viewBox="0 0 239 66" fill="none" xmlns="http://www.w3.org/2000/svg">
<path d="M20.9837 40V32.2525C29.2055 32.2525 35.53 24.1097 32.4073 15.4926C31.2214 12.2908 28.6916 9.72145 25.4899 8.57513C16.8727 5.45241 8.72994 11.7769 8.72994 19.9988H0.982422C0.982422 6.91495 13.6314 -3.28331 27.3477 0.985732C33.356 2.84355 38.0993 7.62646 39.9572 13.5952C44.2262 27.351 34.0675 40 20.9837 40Z" fill="#717485"/>
<path fill-rule="evenodd" clip-rule="evenodd" d="M20.9837 32.2525H13.2757V24.5446H20.9837V32.2525Z" fill="#717485"/>
<path fill-rule="evenodd" clip-rule="evenodd" d="M13.2757 38.1817H7.3465V32.2524H13.2757V38.1817Z" fill="#717485"/>
<path fill-rule="evenodd" clip-rule="evenodd" d="M7.34645 32.2525H2.36591V27.3115H7.34645V32.2525Z" fill="#717485"/>
<path d="M72.1331 11.5794C69.8405 9.9983 66.9944 9.16821 63.6741 9.16821H56.4404V32.1341H63.6741C66.9944 32.1341 69.8405 31.304 72.1331 29.6043C73.398 28.7346 74.3862 27.4697 75.0582 25.9281C75.7302 24.3865 76.0859 22.5682 76.0859 20.5128C76.0859 18.4969 75.7302 16.6786 75.0582 15.137C74.3862 13.6349 73.398 12.4095 72.1331 11.5794ZM60.6699 13.0815H62.9626C65.4924 13.0815 67.5874 13.5954 69.1685 14.544C70.9077 15.6113 71.8169 17.6272 71.8169 20.5128C71.8169 23.5169 70.9077 25.6119 69.1685 26.7582C67.6664 27.7464 65.5714 28.2603 63.0021 28.2603H60.7095V13.0815H60.6699Z" fill="#717485"/>
<path d="M81.1456 8.8916C80.4341 8.8916 79.8411 9.12877 79.3668 9.60311C78.8925 10.0774 78.6158 10.6704 78.6158 11.3423C78.6158 12.0539 78.8529 12.6468 79.3668 13.1211C79.8411 13.5954 80.4341 13.8721 81.1456 13.8721C81.8571 13.8721 82.45 13.635 82.9243 13.1211C83.3987 12.6468 83.6754 12.0143 83.6754 11.3423C83.6754 10.6308 83.4382 10.0379 82.9243 9.60311C82.45 9.12877 81.8175 8.8916 81.1456 8.8916Z" fill="#717485"/>
<path d="M83.1219 15.967H79.0505V32.1736H83.1219V15.967Z" fill="#717485"/>
<path d="M97.945 17.311C96.7196 16.2042 95.3362 15.5718 93.8736 15.5718C91.6205 15.5718 89.7627 16.3623 88.3001 17.8644C86.8376 19.3665 86.1261 21.3429 86.1261 23.675C86.1261 25.9677 86.8376 27.9046 88.3001 29.4857C89.7627 30.9878 91.6205 31.7783 93.8736 31.7783C95.4547 31.7783 96.7987 31.3435 97.9055 30.4739V30.8692C97.9055 32.2131 97.5497 33.2409 96.8382 33.9919C96.1267 34.7034 95.1385 35.0591 93.9131 35.0591C92.0158 35.0591 90.8695 34.3081 89.4069 32.3712L86.64 35.0196L86.719 35.1382C87.3119 35.9683 88.2211 36.7984 89.4465 37.5889C90.6718 38.3795 92.1739 38.7748 93.9922 38.7748C96.4034 38.7748 98.3798 38.0238 99.8028 36.5612C101.265 35.0987 101.977 33.1223 101.977 30.6715V15.9671H97.9845V17.311H97.945ZM96.8778 26.8768C96.1662 27.6674 95.2571 28.0627 94.0713 28.0627C92.8854 28.0627 91.9763 27.6674 91.3043 26.8768C90.5928 26.0863 90.237 25.019 90.237 23.7146C90.237 22.4101 90.5928 21.3034 91.3043 20.5128C92.0158 19.7222 92.9249 19.2874 94.0713 19.2874C95.2571 19.2874 96.1662 19.6827 96.8778 20.5128C97.5893 21.3034 97.945 22.4101 97.945 23.7146C97.945 25.019 97.5497 26.0863 96.8778 26.8768Z" fill="#717485"/>
<path d="M109.487 15.967H105.416V32.1736H109.487V15.967Z" fill="#717485"/>
<path d="M107.511 8.8916C106.799 8.8916 106.206 9.12877 105.732 9.60311C105.258 10.0774 104.981 10.6704 104.981 11.3423C104.981 12.0539 105.218 12.6468 105.732 13.1211C106.206 13.5954 106.799 13.8721 107.511 13.8721C108.222 13.8721 108.815 13.635 109.29 13.1211C109.764 12.6468 110.041 12.0143 110.041 11.3423C110.041 10.6308 109.803 10.0379 109.29 9.60311C108.815 9.12877 108.183 8.8916 107.511 8.8916Z" fill="#717485"/>
<path d="M118.421 11.6189H114.428V16.0065H112.096V19.7222H114.428V26.4419C114.428 28.5369 114.863 30.039 115.693 30.9086C116.523 31.7782 117.986 32.2131 120.081 32.2131C120.753 32.2131 121.425 32.1735 122.057 32.134H122.255V28.4184L120.871 28.4974C119.883 28.4974 119.251 28.3393 118.934 27.9835C118.618 27.6278 118.46 26.9163 118.46 25.849V19.6826H122.255V15.967H118.46V11.6189H118.421Z" fill="#717485"/>
<path d="M145.379 9.16821H141.307V32.1341H145.379V9.16821Z" fill="#717485"/>
<path d="M186.527 26.363C185.816 27.193 185.065 27.9046 184.472 28.2603C183.919 28.6161 183.207 28.8137 182.377 28.8137C181.191 28.8137 180.203 28.3789 179.412 27.4697C178.622 26.5606 178.227 25.4143 178.227 24.0308C178.227 22.6473 178.622 21.501 179.373 20.6314C180.163 19.7222 181.112 19.2874 182.298 19.2874C183.602 19.2874 184.986 20.1175 186.172 21.501L188.86 18.9317C187.12 16.639 184.867 15.5718 182.179 15.5718C179.926 15.5718 177.989 16.4019 176.408 17.983C174.827 19.5641 174.037 21.6196 174.037 24.0308C174.037 26.442 174.827 28.4579 176.408 30.0786C177.989 31.6993 179.926 32.4898 182.179 32.4898C185.144 32.4898 187.516 31.2249 189.097 28.8928L186.527 26.363Z" fill="#717485"/>
<path d="M203.248 18.2202C202.655 17.4296 201.864 16.7576 200.916 16.2833C199.928 15.8089 198.821 15.5718 197.556 15.5718C195.263 15.5718 193.405 16.4019 192.022 18.062C190.678 19.7222 189.966 21.7382 189.966 24.1494C189.966 26.6001 190.717 28.6161 192.22 30.1972C193.682 31.7388 195.698 32.5293 198.109 32.5293C200.837 32.5293 203.129 31.4226 204.789 29.209L204.869 29.0904L202.22 26.5211C201.983 26.8373 201.627 27.1535 201.311 27.4697C200.916 27.865 200.52 28.1417 200.125 28.3394C199.532 28.6556 198.821 28.7742 198.07 28.7742C196.923 28.7742 196.014 28.4579 195.303 27.786C194.631 27.193 194.236 26.363 194.156 25.3352H204.948L204.987 23.8332C204.987 22.7659 204.829 21.7777 204.552 20.829C204.276 19.9199 203.841 19.0503 203.248 18.2202ZM194.354 22.0544C194.552 21.2638 194.907 20.6314 195.421 20.1175C195.975 19.5641 196.686 19.2874 197.556 19.2874C198.544 19.2874 199.295 19.5641 199.809 20.1175C200.283 20.6314 200.56 21.2638 200.639 22.0149H194.354V22.0544Z" fill="#717485"/>
<path d="M218.901 17.1925C217.676 16.1252 215.976 15.6113 213.841 15.6113C212.497 15.6113 211.233 15.9276 210.086 16.4809C209.019 17.0343 207.991 17.904 207.319 19.0898L207.359 19.1293L209.968 21.6196C211.035 19.9199 212.221 19.327 213.802 19.327C214.672 19.327 215.344 19.5641 215.897 19.999C216.45 20.4338 216.687 21.0267 216.687 21.7382V22.5288C215.66 22.2125 214.672 22.0544 213.683 22.0544C211.667 22.0544 210.007 22.5288 208.782 23.4774C207.556 24.4261 206.924 25.8096 206.924 27.5093C206.924 29.0114 207.438 30.2763 208.505 31.1854C209.572 32.055 210.877 32.5294 212.418 32.5294C213.96 32.5294 215.423 31.8969 216.727 30.8297V32.1736H220.719V21.7382C220.798 19.8013 220.166 18.2597 218.901 17.1925ZM211.667 25.9677C212.142 25.6515 212.774 25.4934 213.604 25.4934C214.592 25.4934 215.62 25.691 216.687 26.0863V27.6674C215.818 28.4975 214.632 28.8928 213.169 28.8928C212.458 28.8928 211.905 28.7347 211.549 28.4184C211.193 28.1022 210.995 27.7465 210.995 27.2326C210.995 26.7187 211.233 26.2839 211.667 25.9677Z" fill="#717485"/>
<path d="M236.452 17.5087C235.305 16.2438 233.724 15.6113 231.708 15.6113C230.088 15.6113 228.783 16.0857 227.795 16.9948V16.0066H223.803V32.2131H227.874V23.2403C227.874 22.0149 228.151 21.0267 228.744 20.3547C229.337 19.6432 230.088 19.327 231.155 19.327C232.064 19.327 232.775 19.6432 233.289 20.2361C233.803 20.8686 234.08 21.6987 234.08 22.7659V32.1341H238.151V22.7659C238.151 20.5523 237.598 18.7736 236.452 17.5087Z" fill="#717485"/>
<path d="M136.208 17.1925C134.983 16.1252 133.283 15.6113 131.149 15.6113C129.805 15.6113 128.54 15.9276 127.393 16.4809C126.326 17.0343 125.298 17.904 124.626 19.0898L124.666 19.1293L127.275 21.6196C128.342 19.9199 129.528 19.327 131.109 19.327C131.979 19.327 132.651 19.5641 133.204 19.999C133.757 20.4338 133.995 21.0267 133.995 21.7382V22.5288C132.967 22.2125 131.979 22.0544 130.99 22.0544C128.974 22.0544 127.314 22.5288 126.089 23.4774C124.864 24.4261 124.231 25.8096 124.231 27.5093C124.231 29.0114 124.745 30.2763 125.812 31.1854C126.879 32.055 128.184 32.5294 129.725 32.5294C131.267 32.5294 132.73 31.8969 134.034 30.8297V32.1736H138.026V21.7382C138.066 19.8013 137.433 18.2597 136.208 17.1925ZM128.974 25.9677C129.449 25.6515 130.081 25.4934 130.911 25.4934C131.9 25.4934 132.927 25.691 133.995 26.0863V27.6674C133.125 28.4975 131.939 28.8928 130.477 28.8928C129.765 28.8928 129.212 28.7347 128.856 28.4184C128.5 28.1022 128.302 27.7465 128.302 27.2326C128.302 26.7187 128.5 26.2839 128.974 25.9677Z" fill="#717485"/>
<path d="M160.162 32.4898C153.64 32.4898 148.304 27.1931 148.304 20.6314C148.304 14.0697 153.601 8.77295 160.162 8.77295C166.684 8.77295 172.021 14.0697 172.021 20.6314C172.021 27.1931 166.684 32.4898 160.162 32.4898ZM160.162 13.0025C155.933 13.0025 152.494 16.4414 152.494 20.6709C152.494 24.9004 155.933 28.3394 160.162 28.3394C164.392 28.3394 167.831 24.9004 167.831 20.6709C167.831 16.4414 164.392 13.0025 160.162 13.0025Z" fill="#717485"/>
<path d="M62.9104 50C65.957 50 68.0896 52.1123 68.0896 55.1792C68.0896 58.2461 65.9164 60.3584 62.8292 60.3584H59.4373V65.7407H57V50H62.9104ZM59.4373 58.307H62.2401C64.3728 58.307 65.5711 57.1697 65.5711 55.1792C65.5711 53.1888 64.3524 52.0514 62.2401 52.0514H59.4373V58.307Z" fill="#717485"/>
<path d="M79.1589 61.4958H73.1673L71.7252 65.7407H69.1864L74.8733 50H77.5137L83.2007 65.7407H80.6213L79.1589 61.4958ZM73.7969 59.5257H78.5496L76.2138 52.6201H76.1529L73.7969 59.5257Z" fill="#717485"/>
<path d="M88.8064 65.7407H86.3692V50H92.4624C95.7121 50 97.7228 51.8686 97.7228 54.8136C97.7228 56.9462 96.5854 58.6726 94.6762 59.3023L98.19 65.7407H95.3668L92.1577 59.6882H88.8064V65.7407ZM88.8064 57.718H92.2389C94.1278 57.718 95.2043 56.6822 95.2043 54.8746C95.2043 53.1278 94.0669 52.0514 92.178 52.0514H88.8268V57.718H88.8064Z" fill="#717485"/>
<path d="M105.4 65.7407V52.1123H100.587V50H112.651V52.1123H107.838V65.7407H105.4Z" fill="#717485"/>
<path d="M116.084 65.7407V50H118.298L126.462 61.5974H126.544V50H128.92V65.7407H126.726L118.562 54.1434H118.46V65.7407H116.084Z" fill="#717485"/>
<path d="M143.239 65.7407H133.246V50H143.239V52.1123H135.683V56.7025H142.833V58.7336H135.683V63.6284H143.239V65.7407Z" fill="#717485"/>
<path d="M149.616 65.7407H147.179V50H153.272C156.522 50 158.533 51.8686 158.533 54.8136C158.533 56.9462 157.395 58.6726 155.486 59.3023L159 65.7407H156.177L152.968 59.6882H149.616V65.7407ZM149.616 57.718H153.049C154.938 57.718 156.014 56.6822 156.014 54.8746C156.014 53.1278 154.877 52.0514 152.988 52.0514H149.616V57.718Z" fill="#717485"/>
</svg>

<svg width="239" height="66" fill="none" xmlns="http://www.w3.org/2000/svg"><path d="M20.984 40v-7.748c8.221 0 14.546-8.142 11.423-16.76-1.186-3.201-3.715-5.77-6.917-6.917C16.873 5.452 8.73 11.777 8.73 20H.982C.982 6.915 13.632-3.283 27.348.986c6.008 1.858 10.751 6.64 12.61 12.61C44.225 27.35 34.067 40 20.983 40z" fill="#717485"/><path fill-rule="evenodd" clip-rule="evenodd" d="M20.984 32.252h-7.708v-7.707h7.708v7.707zM13.276 38.182h-5.93v-5.93h5.93v5.93zM7.346 32.252h-4.98v-4.94h4.98v4.94z" fill="#717485"/><path d="M72.133 11.58c-2.292-1.582-5.139-2.412-8.459-2.412H56.44v22.966h7.234c3.32 0 6.167-.83 8.46-2.53 1.264-.87 2.252-2.134 2.924-3.676.672-1.541 1.028-3.36 1.028-5.415 0-2.016-.356-3.834-1.028-5.376-.672-1.502-1.66-2.728-2.925-3.558zM60.67 13.081h2.293c2.53 0 4.624.513 6.205 1.462 1.74 1.067 2.649 3.083 2.649 5.969 0 3.004-.91 5.099-2.648 6.245-1.503.988-3.598 1.502-6.167 1.502H60.71V13.081h-.04zM81.146 8.892c-.712 0-1.305.237-1.78.711-.474.474-.75 1.067-.75 1.74 0 .71.237 1.304.75 1.778.475.474 1.068.751 1.78.751.711 0 1.304-.237 1.778-.75a2.514 2.514 0 00.751-1.78c0-.711-.237-1.304-.75-1.739-.475-.474-1.108-.711-1.78-.711zM83.122 15.967H79.05v16.207h4.072V15.967zM97.945 17.311c-1.225-1.107-2.609-1.74-4.071-1.74-2.253 0-4.111.791-5.574 2.293-1.462 1.502-2.174 3.479-2.174 5.811 0 2.293.712 4.23 2.174 5.81 1.463 1.503 3.32 2.293 5.574 2.293 1.58 0 2.925-.434 4.032-1.304v.395c0 1.344-.356 2.372-1.068 3.123-.711.711-1.7 1.067-2.925 1.067-1.897 0-3.043-.75-4.506-2.688L86.64 35.02l.079.118c.593.83 1.502 1.66 2.728 2.45 1.225.791 2.727 1.187 4.545 1.187 2.411 0 4.388-.751 5.81-2.214 1.463-1.462 2.175-3.439 2.175-5.89V15.968h-3.993v1.344h-.039zm-1.067 9.566c-.712.79-1.62 1.186-2.807 1.186-1.186 0-2.095-.396-2.767-1.186-.711-.79-1.067-1.858-1.067-3.162 0-1.305.356-2.412 1.067-3.202.712-.79 1.62-1.226 2.767-1.226 1.186 0 2.095.396 2.807 1.226.711.79 1.067 1.897 1.067 3.202 0 1.304-.395 2.371-1.067 3.162zM109.487 15.967h-4.071v16.207h4.071V15.967zM107.511 8.892c-.712 0-1.305.237-1.779.711s-.751 1.067-.751 1.74c0 .71.237 1.304.751 1.778.474.474 1.067.751 1.779.751.711 0 1.304-.237 1.779-.75a2.516 2.516 0 00.751-1.78c0-.711-.238-1.304-.751-1.739-.475-.474-1.107-.711-1.779-.711zM118.421 11.619h-3.993v4.387h-2.332v3.716h2.332v6.72c0 2.095.435 3.597 1.265 4.467.83.87 2.293 1.304 4.388 1.304.672 0 1.344-.04 1.976-.079h.198v-3.716l-1.384.08c-.988 0-1.62-.159-1.937-.515-.316-.355-.474-1.067-.474-2.134v-6.166h3.795v-3.716h-3.795v-4.348h-.039zM145.379 9.168h-4.072v22.966h4.072V9.168zM186.527 26.363c-.711.83-1.462 1.542-2.055 1.897-.553.356-1.265.554-2.095.554-1.186 0-2.174-.435-2.965-1.344-.79-.91-1.185-2.056-1.185-3.44 0-1.383.395-2.529 1.146-3.399.79-.909 1.739-1.344 2.925-1.344 1.304 0 2.688.83 3.874 2.214l2.688-2.57c-1.74-2.292-3.993-3.36-6.681-3.36-2.253 0-4.19.83-5.771 2.412-1.581 1.581-2.371 3.637-2.371 6.048s.79 4.427 2.371 6.048c1.581 1.62 3.518 2.41 5.771 2.41 2.965 0 5.337-1.264 6.918-3.596l-2.57-2.53zM203.248 18.22a6.602 6.602 0 00-2.332-1.937c-.988-.474-2.095-.711-3.36-.711-2.293 0-4.151.83-5.534 2.49-1.344 1.66-2.056 3.676-2.056 6.087 0 2.451.751 4.467 2.254 6.048 1.462 1.542 3.478 2.332 5.889 2.332 2.728 0 5.02-1.106 6.68-3.32l.08-.119-2.649-2.569c-.237.316-.593.633-.909.949a4.539 4.539 0 01-1.186.87c-.593.316-1.304.434-2.055.434-1.147 0-2.056-.316-2.767-.988-.672-.593-1.067-1.423-1.147-2.45h10.792l.039-1.503a10.6 10.6 0 00-.435-3.004 8.949 8.949 0 00-1.304-2.609zm-8.894 3.834c.198-.79.553-1.423 1.067-1.936.554-.554 1.265-.83 2.135-.83.988 0 1.739.276 2.253.83.474.513.751 1.146.83 1.897h-6.285v.04zM218.901 17.192c-1.225-1.067-2.925-1.58-5.06-1.58a8.595 8.595 0 00-3.755.869c-1.067.553-2.095 1.423-2.767 2.609l.04.04 2.609 2.49c1.067-1.7 2.253-2.293 3.834-2.293.87 0 1.542.237 2.095.672.553.435.79 1.028.79 1.74v.79a10.112 10.112 0 00-3.004-.475c-2.016 0-3.676.475-4.901 1.423-1.226.95-1.858 2.333-1.858 4.032 0 1.502.514 2.767 1.581 3.676 1.067.87 2.372 1.344 3.913 1.344 1.542 0 3.005-.632 4.309-1.7v1.345h3.992V21.738c.079-1.937-.553-3.478-1.818-4.546zm-7.234 8.776c.475-.317 1.107-.475 1.937-.475.988 0 2.016.198 3.083.593v1.581c-.869.83-2.055 1.226-3.518 1.226-.711 0-1.264-.158-1.62-.475-.356-.316-.554-.671-.554-1.185s.238-.95.672-1.265zM236.452 17.509c-1.147-1.265-2.728-1.898-4.744-1.898-1.62 0-2.925.475-3.913 1.384v-.988h-3.992v16.206h4.071V23.24c0-1.225.277-2.213.87-2.885.593-.712 1.344-1.028 2.411-1.028.909 0 1.62.316 2.134.91.514.632.791 1.462.791 2.529v9.368h4.071v-9.368c0-2.214-.553-3.992-1.699-5.257zM136.208 17.192c-1.225-1.067-2.925-1.58-5.059-1.58a8.6 8.6 0 00-3.756.869c-1.067.553-2.095 1.423-2.767 2.609l.04.04 2.609 2.49c1.067-1.7 2.253-2.293 3.834-2.293.87 0 1.542.237 2.095.672.553.435.791 1.028.791 1.74v.79a10.123 10.123 0 00-3.005-.475c-2.016 0-3.676.475-4.901 1.423-1.225.95-1.858 2.333-1.858 4.032 0 1.502.514 2.767 1.581 3.676 1.067.87 2.372 1.344 3.913 1.344 1.542 0 3.005-.632 4.309-1.7v1.345h3.992V21.738c.04-1.937-.593-3.478-1.818-4.546zm-7.234 8.776c.475-.317 1.107-.475 1.937-.475.989 0 2.016.198 3.084.593v1.581c-.87.83-2.056 1.226-3.518 1.226-.712 0-1.265-.158-1.621-.475-.356-.316-.554-.671-.554-1.185s.198-.95.672-1.265zM160.162 32.49c-6.522 0-11.858-5.297-11.858-11.859a11.843 11.843 0 0111.858-11.858c6.522 0 11.859 5.297 11.859 11.858 0 6.562-5.337 11.859-11.859 11.859zm0-19.488c-4.229 0-7.668 3.44-7.668 7.669 0 4.23 3.439 7.668 7.668 7.668 4.23 0 7.669-3.439 7.669-7.668 0-4.23-3.439-7.668-7.669-7.668zM62.91 50c3.047 0 5.18 2.112 5.18 5.18 0 3.066-2.174 5.178-5.26 5.178h-3.393v5.383H57V50h5.91zm-3.473 8.307h2.803c2.133 0 3.331-1.137 3.331-3.128 0-1.99-1.219-3.128-3.33-3.128h-2.804v6.256zM79.159 61.496h-5.992l-1.442 4.245h-2.539L74.873 50h2.64l5.688 15.74h-2.58l-1.462-4.244zm-5.362-1.97h4.753l-2.336-6.906h-.061l-2.356 6.906zM88.806 65.74H86.37V50h6.093c3.25 0 5.26 1.869 5.26 4.814 0 2.132-1.137 3.859-3.046 4.488l3.514 6.439h-2.823l-3.21-6.053h-3.35v6.053zm0-8.022h3.433c1.889 0 2.965-1.036 2.965-2.843 0-1.747-1.137-2.824-3.026-2.824h-3.351v5.667h-.02zM105.4 65.74V52.113h-4.813V50h12.064v2.112h-4.813v13.629H105.4zM116.084 65.74V50h2.214l8.164 11.597h.082V50h2.376v15.74h-2.194l-8.164-11.597h-.102v11.598h-2.376zM143.239 65.74h-9.993V50h9.993v2.112h-7.556v4.59h7.15v2.032h-7.15v4.894h7.556v2.113zM149.616 65.74h-2.437V50h6.093c3.25 0 5.261 1.869 5.261 4.814 0 2.132-1.138 3.859-3.047 4.488L159 65.741h-2.823l-3.209-6.053h-3.352v6.053zm0-8.022h3.433c1.889 0 2.965-1.036 2.965-2.843 0-1.747-1.137-2.824-3.026-2.824h-3.372v5.667z" fill="#717485"/></svg>
